X: 1
T: Primrose Road, The
M: 4/4
L: 1/8
R: reel
K: Gmaj
B2BA GEDE|G2BG dGBG|B2BA GEDG|1 EAAB A2GA:|2 EAAB A3z||
Bdef gfed|d2gd BG~G2|Bdef gfed|eaab a3z|
Bdef gfed|d2gd BGGA|B2BA GEDG|EAAB A2GA||
